public/svgs/aboutus/letter4.svg

<svg width="62" height="59" viewBox="0 0 62 59" fill="none" xmlns="http://www.w3.org/2000/svg">
<g filter="url(#filter0_d_3712_2685)">
<path d="M36.3484 21.0952C35.3524 24.1554 34.1817 26.8407 32.7279 29.4026L25.4413 27.0601C25.6713 26.6384 25.8932 26.2232 26.1082 25.7972C26.6333 24.7559 27.1487 23.6975 27.6474 22.6732C27.8791 22.1962 28.1107 21.7192 28.3439 21.2443C28.3767 21.1761 28.4033 21.125 28.425 21.0845C29.7425 21.0931 31.1453 21.0973 32.9404 21.0973C33.8044 21.0973 34.674 21.0973 35.5521 21.0952H35.6002C35.8489 21.0952 36.0982 21.0952 36.3484 21.0952ZM16.3714 49.6886C23.4499 47.6187 29.044 44.6523 33.4729 40.6232C33.8749 40.2569 34.2682 39.8842 34.6746 39.4966C34.7068 39.5307 34.7389 39.5648 34.7711 39.5989L34.7896 39.6201C35.6947 40.5827 36.5494 41.492 37.4394 42.4035C37.5533 42.5206 37.6664 42.6377 37.7799 42.757C38.375 43.3788 39.0446 44.0773 39.8595 44.6118C40.5191 45.0441 41.2626 45.272 42.01 45.272C43.6171 45.272 44.9844 44.2498 45.4937 42.6697C45.6677 42.1287 46.0214 40.7382 45.5478 39.4924C44.9851 38.0102 44.2833 36.8411 43.4619 36.0169C42.4592 35.0139 41.388 34.1685 40.2538 33.2741C40.1403 33.1847 40.0253 33.0952 39.9099 33.0036C42.0762 29.5154 43.8362 25.6013 45.2687 21.0867L45.9601 21.0888H46.0014C46.569 21.0888 47.132 21.0888 47.6917 21.0888C48.8242 21.0888 49.7013 21.0867 50.5357 21.0824H50.6607C51.2371 21.0782 51.8909 21.076 52.5548 20.944C53.7368 20.7098 54.2424 20.0155 54.4385 19.6237C54.6366 19.2276 54.8891 18.3992 54.357 17.2897C54.1102 16.7765 53.7593 16.308 53.369 15.9715C53.1672 15.7969 52.9653 15.6223 52.7635 15.4476C51.6467 14.4787 50.4929 13.4799 49.2827 12.5557C48.7802 12.1724 48.1616 11.7827 47.383 11.7827C46.4642 11.7806 45.7948 12.3172 45.2084 12.8964C44.4085 13.6844 43.7003 14.4936 43.1035 15.2986C42.9525 15.5009 42.8672 15.5924 42.4224 15.5924L42.3843 15.5903C41.0375 15.5754 39.5516 15.569 37.7134 15.569C36.7994 15.569 35.8855 15.5711 34.9714 15.5711L34.9178 15.5733C34.0254 15.5733 33.1329 15.5754 32.2403 15.5754H30.8333C31.1516 14.8791 31.4879 14.7151 31.9895 14.6725C32.6033 14.6235 33.1197 14.3424 33.4546 14.1337C34.3814 13.5609 34.8988 12.6217 34.839 11.623C34.7822 10.6753 34.2015 9.85545 33.2855 9.43167C31.0599 8.39883 28.7895 7.91969 26.2656 7.44267L25.9093 7.37452C25.8427 7.36174 25.7763 7.35535 25.7107 7.35535C25.2695 7.35535 24.8645 7.6322 24.71 8.06024L24.5867 8.40097C24.3295 9.11224 24.0774 9.80646 23.8295 10.49C23.2012 12.2214 22.6099 13.8505 22.0301 15.4987C22.0172 15.5371 22.0052 15.569 21.9948 15.5946C21.9942 15.5946 21.9933 15.5946 21.9927 15.5946C19.2294 15.4689 16.4227 15.3774 13.7086 15.2901L13.6788 15.2879C12.6091 15.2538 11.5393 15.2176 10.4696 15.1814C10.2407 15.1729 9.99823 15.1601 9.7176 15.1431H9.69737C9.54513 15.1346 9.37991 15.1239 9.19509 15.1154L8.60509 15.0835C8.58636 15.0835 8.56762 15.0814 8.54888 15.0814C8.22737 15.0814 7.92183 15.2283 7.71913 15.4796C7.50472 15.7458 7.43169 16.1014 7.52282 16.4294L7.67995 17.0001L7.68805 17.0299L8.59551 20.3179L8.68685 20.648C8.81482 21.1122 9.2364 21.4295 9.71249 21.4295C9.73229 21.4295 9.7521 21.4295 9.77211 21.4295L10.1149 21.4104C10.7611 21.3742 11.3903 21.3316 11.9986 21.2911C13.3536 21.2017 14.6335 21.1165 15.9057 21.1058C16.3631 21.1037 16.8225 21.0909 17.2671 21.0782C17.7764 21.0654 18.2991 21.0505 18.8102 21.0505C18.9958 21.0505 19.1736 21.0526 19.345 21.0547C17.736 23.7273 16.1014 26.4233 14.5158 29.0384L13.9558 29.9626C13.8106 30.2012 13.6617 30.4397 13.5129 30.676C13.2921 31.0274 13.0658 31.3894 12.8486 31.76C12.1338 32.9781 12.4315 34.2622 13.6453 35.1928C14.6657 35.9765 15.8076 36.3896 16.9475 36.3896C18.6083 36.3896 20.1185 35.5378 21.2002 33.9939C21.7293 33.2379 22.2388 32.4691 22.7781 31.6535L22.7871 31.6386C22.7964 31.6258 22.806 31.6109 22.8154 31.596L27.2784 34.1089L28.8029 34.9671C28.7122 35.0565 28.6219 35.146 28.5323 35.2333C27.4264 36.3215 26.3816 37.3479 25.2942 38.2615C21.4159 41.524 16.6064 44.0986 10.1584 46.3708C10.0632 46.4028 9.9665 46.4347 9.86984 46.4666C9.47189 46.5965 9.02796 46.7392 8.58678 47.0075C7.8718 47.442 7.31564 48.5302 7.62757 49.4608C7.85178 50.1273 8.49161 50.9323 9.36714 51.1218C9.55238 51.1623 9.74891 51.1836 9.95075 51.1836C10.4047 51.1836 10.8163 51.0814 11.1472 51.0005L11.2312 50.9813C11.6154 50.8876 12.0018 50.796 12.3885 50.7044C13.6945 50.3957 15.0447 50.0762 16.3714 49.6886Z" fill="black"/>
</g>
<defs>
<filter id="filter0_d_3712_2685" x="0.484375" y="0.355469" width="61.1875" height="57.8281" filterUnits="userSpaceOnUse" color-interpolation-filters="sRGB">
<feFlood flood-opacity="0" result="BackgroundImageFix"/>
<feColorMatrix in="SourceAlpha" type="matrix" values="0 0 0 0 0 0 0 0 0 0 0 0 0 0 0 0 0 0 127 0" result="hardAlpha"/>
<feOffset/>
<feGaussianBlur stdDeviation="3.5"/>
<feComposite in2="hardAlpha" operator="out"/>
<feColorMatrix type="matrix" values="0 0 0 0 0.94902 0 0 0 0 0.866667 0 0 0 0 0.486275 0 0 0 1 0"/>
<feBlend mode="normal" in2="BackgroundImageFix" result="effect1_dropShadow_3712_2685"/>
<feBlend mode="normal" in="SourceGraphic" in2="effect1_dropShadow_3712_2685" result="shape"/>
</filter>
</defs>
</svg>

<svg xmlns="http://www.w3.org/2000/svg" width="62" height="59" fill="none" viewBox="0 0 62 59"><g filter="url(#a)"><path fill="#000" d="M36.348 21.095c-.996 3.06-2.166 5.746-3.62 8.308L25.44 27.06c.23-.422.452-.837.667-1.263.525-1.041 1.04-2.1 1.54-3.124q.347-.716.696-1.429l.081-.16c1.317.01 2.72.013 4.515.013l2.612-.002zM16.371 49.69c7.079-2.07 12.673-5.037 17.102-9.066a72 72 0 0 0 1.202-1.126l.096.102.019.021c.905.963 1.76 1.872 2.65 2.784l.34.353c.595.622 1.265 1.32 2.08 1.855.66.432 1.403.66 2.15.66 1.607 0 2.974-1.022 3.484-2.602.174-.541.527-1.932.054-3.178-.563-1.482-1.265-2.65-2.086-3.475-1.003-1.003-2.074-1.849-3.208-2.743l-.344-.27c2.166-3.489 3.926-7.403 5.359-11.917l.691.002h1.731c1.133 0 2.01-.002 2.845-.007h.125c.576-.004 1.23-.006 1.894-.138 1.182-.234 1.687-.928 1.883-1.32.199-.396.451-1.225-.081-2.334a4.1 4.1 0 0 0-.988-1.318l-.605-.524c-1.117-.97-2.271-1.968-3.481-2.892-.503-.384-1.121-.773-1.9-.773-.919-.002-1.588.534-2.175 1.113a21 21 0 0 0-2.105 2.403c-.15.202-.236.293-.68.293l-.039-.002a422 422 0 0 0-4.67-.021l-2.743.002-.053.002-2.678.002h-1.407c.319-.696.655-.86 1.157-.902.613-.05 1.13-.33 1.465-.54.926-.572 1.444-1.511 1.384-2.51-.057-.948-.637-1.768-1.553-2.191-2.226-1.033-4.497-1.512-7.02-1.99l-.357-.067a1.066 1.066 0 0 0-1.2.686l-.122.34-.758 2.089c-.628 1.731-1.22 3.36-1.799 5.009l-.035.096h-.002c-2.764-.126-5.57-.218-8.284-.305l-.03-.002q-1.605-.051-3.21-.107a32 32 0 0 1-.751-.038h-.02c-.153-.008-.318-.02-.503-.028l-.59-.031-.056-.003a1.068 1.068 0 0 0-1.026 1.348l.157.57.008.03.908 3.288.09.33c.129.464.55.782 1.026.782h.06l.343-.02q.97-.056 1.884-.119c1.355-.09 2.634-.175 3.907-.185.457-.002.917-.015 1.361-.028.51-.013 1.032-.027 1.543-.027q.279 0 .535.004a2980 2980 0 0 1-4.83 7.983l-.56.925q-.217.358-.442.713c-.22.351-.447.713-.664 1.084-.715 1.218-.418 2.502.796 3.433 1.02.784 2.163 1.197 3.303 1.197 1.66 0 3.17-.852 4.252-2.396a107 107 0 0 0 1.578-2.34l.01-.015.027-.043 4.463 2.513 1.525.858-.27.266c-1.107 1.089-2.151 2.115-3.239 3.029-3.878 3.262-8.688 5.837-15.136 8.109l-.288.096c-.398.13-.842.272-1.283.54-.715.435-1.271 1.523-.96 2.454.225.666.865 1.471 1.74 1.66q.28.062.584.063c.454 0 .865-.103 1.196-.183l.084-.02q.576-.14 1.158-.277c1.306-.308 2.656-.628 3.982-1.015"/></g><defs><filter id="a" width="61.188" height="57.828" x=".484" y=".355" color-interpolation-filters="sRGB" filterUnits="userSpaceOnUse"><feFlood flood-opacity="0" result="BackgroundImageFix"/><feColorMatrix in="SourceAlpha" result="hardAlpha" values="0 0 0 0 0 0 0 0 0 0 0 0 0 0 0 0 0 0 127 0"/><feOffset/><feGaussianBlur stdDeviation="3.5"/><feComposite in2="hardAlpha" operator="out"/><feColorMatrix values="0 0 0 0 0.94902 0 0 0 0 0.866667 0 0 0 0 0.486275 0 0 0 1 0"/><feBlend in2="BackgroundImageFix" result="effect1_dropShadow_3712_2685"/><feBlend in="SourceGraphic" in2="effect1_dropShadow_3712_2685" result="shape"/></filter></defs></svg>
